icons/bar-graph.svg

<?xml version="1.0" encoding="UTF-8"?><svg xmlns="http://www.w3.org/2000/svg" viewBox="0 0 50 50"><g id="uuid-9cb3f859-e342-4165-8824-9c14a880d619"><path d="M49.59,45.47s.02-.06,.02-.09,0-.06-.02-.09c0-.03,0-.06-.02-.09-.01-.03-.03-.06-.05-.09-.01-.02-.02-.05-.04-.07h-.01s0-.02-.01-.03l-2.46-2.29c-.2-.19-.52-.18-.71,.03-.19,.2-.18,.52,.02,.71l1.53,1.42h-4.98V12.92c0-.28-.22-.5-.5-.5h-5.81c-.28,0-.5,.22-.5,.5v31.96h-2.84V23.08c0-.28-.22-.5-.5-.5h-5.81c-.28,0-.5,.22-.5,.5v21.79h-2.84V18.8c0-.28-.22-.5-.5-.5h-5.81c-.28,0-.5,.22-.5,.5v26.08h-2.84V27.31c0-.28-.22-.5-.5-.5H7.6c-.28,0-.5,.22-.5,.5v17.57H3.68V3.54l1.44,1.44c.1,.1,.23,.15,.35,.15s.25-.05,.35-.15c.2-.19,.2-.51,0-.71L3.54,1.98h0s-.04-.02-.05-.04c-.14-.11-.33-.14-.49-.07-.01,0-.02,.02-.04,.03-.04,.02-.09,.05-.13,.08h0L.54,4.28c-.19,.2-.19,.51,0,.71,.1,.1,.23,.15,.35,.15s.26-.05,.35-.15l1.44-1.44V45.38c0,.28,.22,.5,.5,.5H47.84l-1.53,1.42c-.2,.19-.21,.5-.02,.71,.1,.11,.23,.16,.37,.16,.12,0,.24-.04,.34-.13l2.46-2.29s0-.01,.01-.02h.01s.03-.05,.04-.08c.02-.03,.04-.06,.05-.09,.01-.03,.02-.06,.02-.09Zm-41.5-.59V27.81h4.81v17.07h-4.81Zm9.65,0V19.3h4.81v25.58h-4.81Zm9.65,0V23.58h4.81v21.29h-4.81Zm9.65,0V13.42h4.81v31.46h-4.81Z"/></g><g id="uuid-b06013da-4896-4601-b58b-366fa69099b7"><text transform="translate(-.26 54.74)" font-family="Roboto-Regular, Roboto" font-size="6"><tspan x="0" y="0">bar-g</tspan><tspan x="13.68" y="0" letter-spacing="-.02em">r</tspan><tspan x="15.59" y="0">aph</tspan></text></g></svg>

<svg xmlns="http://www.w3.org/2000/svg" viewBox="0 0 50 50"><g id="b298905c-2d4d-438f-97d5-a4825f481538" data-name="ICONS"><path d="M49.59,45.47a.29.29,0,0,0,0-.09.44.44,0,0,0,0-.1.29.29,0,0,0,0-.09.41.41,0,0,0,0-.09l0-.06h0v0L47,42.72a.49.49,0,0,0-.7,0,.5.5,0,0,0,0,.71l1.53,1.42h-5v-32a.5.5,0,0,0-.5-.5H36.55a.5.5,0,0,0-.5.5v32H33.21V23.08a.5.5,0,0,0-.5-.5H26.9a.5.5,0,0,0-.5.5v21.8H23.56V18.8a.5.5,0,0,0-.5-.5H17.25a.5.5,0,0,0-.5.5V44.88H13.91V27.31a.5.5,0,0,0-.5-.5H7.6a.5.5,0,0,0-.5.5V44.88H3.68V3.54L5.12,5a.52.52,0,0,0,.35.14A.54.54,0,0,0,5.83,5a.51.51,0,0,0,0-.71L3.54,2h0l-.06,0A.49.49,0,0,0,3,1.87l0,0A.57.57,0,0,0,2.83,2h0L.54,4.28A.5.5,0,0,0,.54,5a.54.54,0,0,0,.35.14A.54.54,0,0,0,1.25,5L2.68,3.54V45.38a.5.5,0,0,0,.5.5H47.84L46.31,47.3a.5.5,0,0,0,0,.71.46.46,0,0,0,.36.16A.48.48,0,0,0,47,48l2.46-2.29a0,0,0,0,0,0,0h0l0-.07a.35.35,0,0,0,0-.08A.3.3,0,0,0,49.59,45.47ZM8.1,44.88V27.81h4.81V44.88Zm9.65,0V19.3h4.81V44.88Zm9.65,0V23.58h4.81v21.3Zm9.65,0V13.42h4.81V44.88Z"/></g><g id="b12108cc-ce96-430d-8d8f-ea980facbc77" data-name="LABELS"><text transform="translate(-0.26 54.74)" font-size="6" font-family="Roboto-Regular, Roboto">bar-g<tspan x="13.68" y="0" letter-spacing="-0.02em">r</tspan><tspan x="15.59" y="0">aph</tspan></text></g></svg>
